X: 181265
T: Red Stocking
N: version of "Saddle the Pony"
S: "Johnny O'Leary of Sliabh Luachra" (#231)
Z: B.Black
L: 1/8
M: 6/8
R: jig
K: G
GBA G2B|def gdB|GBA G2B|AFD AFD|
GBA G2B|def g2z|gfe dBA|BGG G2D|
G/A/BA G/B/GB|def gdB|G/A/BA G2B|AFD AFD|
GBA G/B/GB|def gfg|e/f/ge dBA|BGG G2d||
efe edB|def gfg|efg edB|d/e/dB ABd|
efe edB|def gfg||gfe dBA|BGG G2d|
efe edB|def gfg||ege dBA|d2B ABd|
efe edB|def g2f|e/f/ge dBA|BGG G3||
